X:185
T: Liebeslied
N: A0220A
O: Europa, Mitteleuropa, Deutschland
N: Hans Leo Hassler, Lustgarten neuer teutscher Gesaenge ...
N: Nuernberg 1601.
R: Romanze, Ballade, Lied
M: 4/4
L: 1/4
K: F
A2d2 | cB2A | G2A2
e2f2 | fe2e | d4
A2d2 | cB2A | G2A2
e2f2 | fe2e | d2z
f | ecde | f3
c | dcdB | A4
f2e2 | gf2e | d2e2
A2B2 | AG2G | A4

